symbols/web/playlist_add_circle/materialsymbolsrounded/playlist_add_circle_wght300grad200_40px.svg

<svg xmlns="http://www.w3.org/2000/svg" height="40" width="40"><path d="M24.458 24.917v2.25q0 .5.354.875.355.375.938.375t.958-.375q.375-.375.375-.917v-2.208h2.209q.5 0 .896-.355.395-.354.395-.937 0-.583-.375-.958t-.958-.375h-2.167v-2.209q0-.541-.375-.916t-.958-.375q-.583 0-.938.375-.354.375-.354.958v2.167h-2.25q-.5 0-.875.375t-.375.958q0 .542.354.917.355.375.938.375Zm-10.708-5h7.333q.5 0 .896-.396t.396-.938q0-.541-.375-.916t-.958-.375h-7.334q-.5 0-.875.396-.375.395-.375.937t.354.917q.355.375.938.375Zm0-5h7.333q.5 0 .896-.396t.396-.938q0-.541-.375-.916t-.958-.375h-7.334q-.5 0-.875.396-.375.395-.375.937t.354.917q.355.375.938.375Zm.125 10.208h1.5q.542 0 .958-.417.417-.416.417-1.041 0-.584-.417-.979-.416-.396-1-.396h-1.5q-.583 0-.979.416-.396.417-.396 1 0 .625.396 1.021.396.396 1.021.396ZM20 36.708q-3.5 0-6.562-1.291-3.063-1.292-5.313-3.542-2.25-2.25-3.542-5.313Q3.292 23.5 3.292 20q0-3.5 1.291-6.562 1.292-3.063 3.563-5.313 2.271-2.25 5.312-3.542Q16.5 3.292 20 3.292t6.562 1.291q3.063 1.292 5.313 3.542 2.25 2.25 3.542 5.313Q36.708 16.5 36.708 20q0 3.5-1.291 6.542-1.292 3.041-3.542 5.312-2.25 2.271-5.313 3.563Q23.5 36.708 20 36.708ZM20 20Zm0 13.917q5.833 0 9.875-4.042T33.917 20q0-5.833-4.042-9.875T20 6.083q-5.833 0-9.875 4.042T6.083 20q0 5.833 4.042 9.875T20 33.917Z"/></svg>

<svg xmlns="http://www.w3.org/2000/svg" height="40" width="40"><path d="M24.458 24.917V27.167Q24.458 27.667 24.812 28.042Q25.167 28.417 25.75 28.417Q26.333 28.417 26.708 28.042Q27.083 27.667 27.083 27.125V24.917H29.292Q29.792 24.917 30.188 24.562Q30.583 24.208 30.583 23.625Q30.583 23.042 30.208 22.667Q29.833 22.292 29.25 22.292H27.083V20.083Q27.083 19.542 26.708 19.167Q26.333 18.792 25.75 18.792Q25.167 18.792 24.812 19.167Q24.458 19.542 24.458 20.125V22.292H22.208Q21.708 22.292 21.333 22.667Q20.958 23.042 20.958 23.625Q20.958 24.167 21.312 24.542Q21.667 24.917 22.25 24.917ZM13.75 19.917H21.083Q21.583 19.917 21.979 19.521Q22.375 19.125 22.375 18.583Q22.375 18.042 22 17.667Q21.625 17.292 21.042 17.292H13.708Q13.208 17.292 12.833 17.688Q12.458 18.083 12.458 18.625Q12.458 19.167 12.812 19.542Q13.167 19.917 13.75 19.917ZM13.75 14.917H21.083Q21.583 14.917 21.979 14.521Q22.375 14.125 22.375 13.583Q22.375 13.042 22 12.667Q21.625 12.292 21.042 12.292H13.708Q13.208 12.292 12.833 12.688Q12.458 13.083 12.458 13.625Q12.458 14.167 12.812 14.542Q13.167 14.917 13.75 14.917ZM13.875 25.125H15.375Q15.917 25.125 16.333 24.708Q16.75 24.292 16.75 23.667Q16.75 23.083 16.333 22.688Q15.917 22.292 15.333 22.292H13.833Q13.25 22.292 12.854 22.708Q12.458 23.125 12.458 23.708Q12.458 24.333 12.854 24.729Q13.25 25.125 13.875 25.125ZM20 36.708Q16.5 36.708 13.438 35.417Q10.375 34.125 8.125 31.875Q5.875 29.625 4.583 26.562Q3.292 23.5 3.292 20Q3.292 16.5 4.583 13.438Q5.875 10.375 8.146 8.125Q10.417 5.875 13.458 4.583Q16.5 3.292 20 3.292Q23.5 3.292 26.562 4.583Q29.625 5.875 31.875 8.125Q34.125 10.375 35.417 13.438Q36.708 16.5 36.708 20Q36.708 23.5 35.417 26.542Q34.125 29.583 31.875 31.854Q29.625 34.125 26.562 35.417Q23.5 36.708 20 36.708ZM20 20Q20 20 20 20Q20 20 20 20Q20 20 20 20Q20 20 20 20Q20 20 20 20Q20 20 20 20Q20 20 20 20Q20 20 20 20ZM20 33.917Q25.833 33.917 29.875 29.875Q33.917 25.833 33.917 20Q33.917 14.167 29.875 10.125Q25.833 6.083 20 6.083Q14.167 6.083 10.125 10.125Q6.083 14.167 6.083 20Q6.083 25.833 10.125 29.875Q14.167 33.917 20 33.917Z"/></svg>
